build/img/9-resources/encyclopedia.svg

<svg width="40" height="40" viewBox="0 0 40 40" fill="none" xmlns="http://www.w3.org/2000/svg">
<path d="M13.4793 37.7304C13.7808 37.8835 14.1379 37.8546 14.4112 37.6548L16.2543 36.3068L18.0974 37.6548H18.0974C18.2542 37.7694 18.4385 37.8278 18.6242 37.8278C18.7621 37.8278 18.9007 37.7956 19.0292 37.7304C19.331 37.5772 19.5184 37.2718 19.5184 36.9335V30.3743H24.6792C25.0018 30.3743 25.2633 30.1129 25.2633 29.7902C25.2633 29.4675 25.0018 29.2061 24.6792 29.2061H12.0866C11.7639 29.2061 11.5024 29.4675 11.5024 29.7902C11.5024 30.1129 11.7639 30.3743 12.0866 30.3743H12.9901V36.9335C12.9902 37.2719 13.1776 37.5772 13.4793 37.7304ZM18.3502 36.3922L16.5992 35.1115C16.4966 35.0364 16.3755 34.9989 16.2544 34.9989C16.1333 34.9989 16.0122 35.0364 15.9096 35.1115L14.1586 36.3922V30.3743H18.3503L18.3502 36.3922Z" fill="#333333"/>
<path d="M37.8517 1.7525C37.8517 0.786172 37.0656 0 36.0992 0H13.7538C12.298 0 10.8927 0.428281 9.68971 1.23859C9.42213 1.41883 9.35135 1.78187 9.53158 2.04953C9.71189 2.31711 10.0749 2.38781 10.3425 2.20766C11.3518 1.52773 12.5314 1.16836 13.7538 1.16836H14.2159V22.6555C14.2159 22.9782 14.4774 23.2397 14.8 23.2397C15.1227 23.2397 15.3842 22.9782 15.3842 22.6555V1.16836H36.0992C36.4213 1.16836 36.6834 1.43039 36.6834 1.7525V25.3352H13.8036C11.221 25.3352 8.94611 26.6774 7.63947 28.7009V7.28258C7.63947 6.11273 7.97072 4.97586 8.59752 3.99508C8.77119 3.7232 8.69158 3.36203 8.41979 3.18828C8.14799 3.01469 7.78682 3.0943 7.61299 3.36602C6.86603 4.535 6.47119 5.8893 6.47119 7.28258C6.47119 7.28258 6.47494 33.0162 6.48111 33.0498C6.68057 36.916 9.88869 40 13.8036 40H37.0484C37.3644 40 37.6521 39.8136 37.7813 39.525C37.9102 39.2371 37.8578 38.8991 37.6478 38.6641C37.1845 38.1455 36.7814 37.5735 36.4499 36.9644C36.2957 36.681 35.941 36.5763 35.6576 36.7305C35.3742 36.8847 35.2696 37.2394 35.4237 37.5228C35.6722 37.9795 35.9562 38.4176 36.2721 38.8317H13.8036C10.4046 38.8317 7.63947 36.0666 7.63947 32.6677C7.63947 29.2687 10.4046 26.5035 13.8036 26.5035H36.272C34.9256 28.2693 34.1921 30.4296 34.1921 32.6677C34.1921 33.3631 34.2627 34.058 34.4021 34.7331C34.4671 35.0491 34.776 35.2524 35.0922 35.1872C35.4081 35.122 35.6115 34.813 35.5462 34.497C35.4229 33.8993 35.3603 33.2838 35.3603 32.6676C35.3603 30.4518 36.1727 28.3222 37.6476 26.6712C37.8085 26.4911 37.876 26.2506 37.8412 26.0185C37.8442 24.4567 37.8517 1.7525 37.8517 1.7525Z" fill="#333333"/>
<path d="M23.758 32.8675H31.1184C31.4411 32.8675 31.7026 32.606 31.7026 32.2834C31.7026 31.9607 31.4411 31.6992 31.1184 31.6992H23.758C23.4353 31.6992 23.1738 31.9607 23.1738 32.2834C23.1738 32.606 23.4353 32.8675 23.758 32.8675Z" fill="#333333"/>
<path d="M18.1625 17.1793L18.6305 15.9506H21.7678L22.2309 17.1777C22.3191 17.4116 22.5414 17.5557 22.7774 17.5557C22.846 17.5557 22.9157 17.5436 22.9836 17.5179C23.2854 17.4041 23.4378 17.067 23.3238 16.7651L20.8917 10.3203C20.8897 10.315 20.8875 10.3096 20.8853 10.3043C20.7719 10.0286 20.5062 9.85059 20.2081 9.85059C20.2078 9.85059 20.2075 9.85059 20.2073 9.85059C19.9089 9.85098 19.6431 10.0296 19.5303 10.3058C19.5285 10.3101 19.5267 10.3146 19.5251 10.3189L17.0706 16.7635C16.9558 17.0649 17.1071 17.4024 17.4087 17.5172C17.7099 17.6322 18.0477 17.4809 18.1625 17.1793ZM20.2063 11.8131L21.3269 14.7823H19.0755L20.2063 11.8131Z" fill="#333333"/>
<path d="M28.3301 17.2432C28.4311 17.4353 28.6303 17.5558 28.8474 17.5558H33.6114C33.934 17.5558 34.1955 17.2943 34.1955 16.9717C34.1955 16.649 33.934 16.3875 33.6114 16.3875H29.9599L33.8998 10.6746C34.0231 10.496 34.037 10.2636 33.9361 10.0714C33.8352 9.87926 33.636 9.75879 33.4189 9.75879H28.9677C28.645 9.75879 28.3836 10.0203 28.3836 10.3429C28.3836 10.6656 28.645 10.9271 28.9677 10.9271H32.3064L28.3665 16.64C28.2432 16.8186 28.2293 17.051 28.3301 17.2432Z" fill="#333333"/>
<path d="M26.8956 13.7845C27.2182 13.7845 27.4797 13.523 27.4797 13.2004C27.4797 12.8777 27.2182 12.6162 26.8956 12.6162H24.7355C24.4129 12.6162 24.1514 12.8777 24.1514 13.2004C24.1514 13.523 24.4129 13.7845 24.7355 13.7845H26.8956Z" fill="#333333"/>
</svg>

<svg width="40" height="40" fill="none" xmlns="http://www.w3.org/2000/svg"><path d="M13.48 37.73a.89.89 0 00.931-.075l1.843-1.348 1.843 1.348a.891.891 0 001.421-.721v-6.56h5.161a.584.584 0 100-1.168H12.087a.584.584 0 100 1.168h.903v6.56a.89.89 0 00.49.796zm4.87-1.338l-1.75-1.28a.583.583 0 00-.69 0l-1.751 1.28v-6.018h4.191v6.018z" fill="#333"/><path d="M37.852 1.752C37.852.786 37.066 0 36.099 0H13.754A7.248 7.248 0 009.69 1.239a.584.584 0 00.652.969 6.083 6.083 0 013.412-1.04h.462v21.488a.584.584 0 101.168 0V1.168H36.1c.322 0 .584.262.584.585v23.582h-22.88a7.333 7.333 0 00-6.164 3.366V7.283c0-1.17.332-2.307.959-3.288a.584.584 0 00-.985-.629 7.26 7.26 0 00-1.142 3.917s.004 25.733.01 25.767c.2 3.866 3.408 6.95 7.323 6.95h23.244a.804.804 0 00.6-1.336 9.046 9.046 0 01-1.198-1.7.584.584 0 10-1.026.559c.248.456.532.895.848 1.309H13.804a6.171 6.171 0 01-6.165-6.164 6.171 6.171 0 016.165-6.165h22.468a10.156 10.156 0 00-2.08 6.165c0 .695.07 1.39.21 2.065a.584.584 0 101.144-.236 9.073 9.073 0 01-.186-1.83 8.99 8.99 0 012.288-5.996c.16-.18.228-.42.193-.652.003-1.562.01-24.266.01-24.266z" fill="#333"/><path d="M23.758 32.867h7.36a.584.584 0 100-1.168h-7.36a.584.584 0 100 1.168zM18.163 17.18l.468-1.23h3.137l.463 1.228a.584.584 0 101.093-.413l-2.432-6.445a.73.73 0 00-.684-.47.73.73 0 00-.683.469l-2.454 6.444a.584.584 0 001.091.416zm2.043-5.367l1.12 2.97h-2.25l1.13-2.97zM28.33 17.243c.101.192.3.313.517.313h4.764a.584.584 0 100-1.169H29.96l3.94-5.712a.584.584 0 00-.481-.916h-4.451a.584.584 0 100 1.168h3.338l-3.94 5.713a.584.584 0 00-.036.603zM26.896 13.784a.584.584 0 100-1.168h-2.16a.584.584 0 000 1.168h2.16z" fill="#333"/></svg>
